frontend/public/nav-retrospect.svg

<svg width="24" height="24" viewBox="0 0 24 24" fill="none" xmlns="http://www.w3.org/2000/svg">
<path d="M9 16.5C8.3 16.5 7.70833 16.2583 7.225 15.775C6.74167 15.2917 6.5 14.7 6.5 14C6.5 13.3 6.74167 12.7083 7.225 12.225C7.70833 11.7417 8.3 11.5 9 11.5C9.7 11.5 10.2917 11.7417 10.775 12.225C11.2583 12.7083 11.5 13.3 11.5 14C11.5 14.7 11.2583 15.2917 10.775 15.775C10.2917 16.2583 9.7 16.5 9 16.5ZM5 22C4.45 22 3.97917 21.8042 3.5875 21.4125C3.19583 21.0208 3 20.55 3 20V6C3 5.45 3.19583 4.97917 3.5875 4.5875C3.97917 4.19583 4.45 4 5 4H6V3C6 2.71667 6.09583 2.47917 6.2875 2.2875C6.47917 2.09583 6.71667 2 7 2C7.28333 2 7.52083 2.09583 7.7125 2.2875C7.90417 2.47917 8 2.71667 8 3V4H16V3C16 2.71667 16.0958 2.47917 16.2875 2.2875C16.4792 2.09583 16.7167 2 17 2C17.2833 2 17.5208 2.09583 17.7125 2.2875C17.9042 2.47917 18 2.71667 18 3V4H19C19.55 4 20.0208 4.19583 20.4125 4.5875C20.8042 4.97917 21 5.45 21 6V20C21 20.55 20.8042 21.0208 20.4125 21.4125C20.0208 21.8042 19.55 22 19 22H5ZM5 20H19V10H5V20ZM5 8H19V6H5V8Z" fill="#C5C5CB"/>
</svg>

<svg fill="none" viewBox="0 0 24 24"><path fill="#c5c5cb" d="M9 16.5q-1.05 0-1.775-.725T6.5 14t.725-1.775T9 11.5t1.775.725T11.5 14t-.725 1.775T9 16.5M5 22q-.824 0-1.412-.587A1.93 1.93 0 0 1 3 20V6q0-.824.587-1.412A1.93 1.93 0 0 1 5 4h1V3q0-.424.287-.712A.97.97 0 0 1 7 2q.424 0 .713.288Q8 2.575 8 3v1h8V3q0-.424.288-.712A.97.97 0 0 1 17 2q.424 0 .712.288Q18 2.575 18 3v1h1q.824 0 1.413.588Q21 5.175 21 6v14q0 .824-.587 1.413A1.93 1.93 0 0 1 19 22zm0-2h14V10H5zM5 8h14V6H5z"/></svg>
